X:61
T:Farewell to Erin
M:C
L:1/8
K:D Major
E|D2FD DAAe|fedf edBc|dBAF GFGB|AGFD EGFE|!
D2FD DAAe|fedf edBc|dBAF GFGB|AGFD EGF:|!
A|defg afdf|g2fg edBA|defg afdg|feed e3A|!
defg afdf|g2fg edBA|dBAF GFGB|AGFD EGF:|!
